!!!COM: Palestrina, Giovanni Perluigi da
!!!OPR: Missa Nigra sum
!!!OTL: Agnus II
**kern	**kern	**kern	**kern	**kern
*Ibass	*Itenor	*Itenor	*Icalto	*Icant
!Bassus	!Tenor 2	!Tenor 1	!Altus	!Cantus
*clefF4	*clefGv2	*clefGv2	*clefG2	*clefG2
*k[b-]	*k[b-]	*k[b-]	*k[b-]	*k[b-]
*D:aeo	*D:aeo	*D:aeo	*D:aeo	*D:aeo
*M4/2	*M4/2	*M4/2	*M4/2	*M4/2
=1	=1	=1	=1	=1
0r	0r	0r	0r	1g
.	.	.	.	[1dd
=2	=2	=2	=2	=2
0r	0r	0r	1r	2dd]
.	.	.	.	2cc#
.	.	.	1d	2.dd
.	.	.	.	4cc
=3	=3	=3	=3	=3
0r	1G	0r	1.g	1b-
.	[1d	.	.	1a
.	.	.	2f#	.
=4	=4	=4	=4	=4
0r	2d]	1G	2.g	1dd
.	2B-	.	.	.
.	.	.	4f	.
.	2.c	[1g	1e-	2cc
.	.	.	.	2g
.	4B-	.	.	.
=5	=5	=5	=5	=5
1D	1A	2g]	1d	2.dd
.	.	2f#	.	.
.	.	.	.	4cc
[1d	1G	2.g	1r	1b-
.	.	4f	.	.
=6	=6	=6	=6	=6
2d]	2A	1e	2r	2a
2c#	2.a	.	2e	2ee
2.d	.	1d	[1a	2ff
.	4g	.	.	.
.	4f	.	.	2dd
4c	4e	.	.	.
=7	=7	=7	=7	=7
1B-	1d	1r	2a]	2ff
.	.	.	2g	4ee
.	.	.	.	4dd
1A	1e	2r	2.a	1cc#
.	.	2e	.	.
.	.	.	4g	.
=8	=8	=8	=8	=8
0D	1.d	2f	4a	0dd
.	.	.	4g	.
.	.	2d	4f	.
.	.	.	4e	.
.	.	2f	1d	.
.	4c	4e	.	.
.	4B-	4d	.	.
=9	=9	=9	=9	=9
1r	1A	1c#	2e	2r
.	.	.	1a	2ee
1D	2r	[1d	.	2ff
.	2A	.	2f	[2dd
=10	=10	=10	=10	=10
1.G	2B-	1d]	1g	4dd]
.	.	.	.	4cc
.	2G	.	.	4b-
.	.	.	.	4a
.	2B-	2r	2r	2g
2F#	2A	2d	2a	2a
=11	=11	=11	=11	=11
2.G	1G	4d	2b-	2d
.	.	4c	.	.
.	.	4B-	2g	1dd
4F	.	4A	.	.
1E-	1r	1G	2b-	.
.	.	.	4a	2cc
.	.	.	4g	.
=12	=12	=12	=12	=12
[0D	2r	1A	0f	0dd
.	2d	.	.	.
.	1a	2A	.	.
.	.	2d	.	.
=13	=13	=13	=13	=13
0D]	2d	1a	2r	0r
.	2.a	.	2d	.
.	.	2d	1a	.
.	4g	.	.	.
.	[2f	[2a	.	.
=14	=14	=14	=14	=14
0r	4f]	4a]	2d	0r
.	4e	4g	.	.
.	4d	4f	2a	.
.	4c	4e	.	.
.	2B-	2d	2g	.
.	2A	2c#	2a	.
=15	=15	=15	=15	=15
0r	2G	2d	2.b-	2r
.	1g	2e-	.	2g
.	.	.	4g	.
.	.	1d	1a	1dd
.	2f	.	.	.
=16	=16	=16	=16	=16
0r	2e-	0r	2.b-	2g
.	2d	.	.	2dd
.	.	.	4a	.
.	2e-	.	2g	2cc
.	2d	.	2f	2dd
=17	=17	=17	=17	=17
0r	1c	1r	2g	1ee-
.	.	.	2a	.
.	2B-	2r	2.b-	2.dd
.	[2d	2G	.	.
.	.	.	8a	8cc
.	.	.	8g	8b-
=18	=18	=18	=18	=18
2r	4d]	1d	2f	[0a
.	4e	.	.	.
2D	2f	.	2d	.
1A	2e	2c	1e	.
.	2c	2e	.	.
=19	=19	=19	=19	=19
2D	2d	2f	1r	1a]
2A	2c	2.e	.	.
2G	2g	.	2r	1r
.	.	4d	.	.
2B-	4f	[2d	2d	.
.	8e	.	.	.
.	8d	.	.	.
=20	=20	=20	=20	=20
1A	2.e	2d]	1a	0r
.	.	2c	.	.
.	4f	.	.	.
2G	2g	2B-	2d	.
2D	4f	2A	2a	.
.	4e	.	.	.
=21	=21	=21	=21	=21
2.G	1d	2.B-	2g	2r
.	.	.	1b-	2g
4A	.	4c	.	.
4B-	1r	4d	.	1dd
4c	.	4e	.	.
2d	.	2f	[2a	.
=22	=22	=22	=22	=22
2c	0r	2e	4a]	2g
.	.	.	4g	.
2B-	.	2d	2g	2dd
1A	.	2e	2c	1cc
.	.	2f#	[2cc	.
=23	=23	=23	=23	=23
1G	2r	1g	2cc]	2ee-
.	2G	.	2.b-	2.dd
1r	1d	1r	.	.
.	.	.	4a	4cc
.	.	.	2f	2a
=24	=24	=24	=24	=24
0r	2G	0r	2g	2b-
.	2d	.	4f	4a
.	.	.	4g	4b-
.	2c	.	4a	4cc
.	.	.	4g	4b-
.	[2e-	.	[2g	4a
.	.	.	.	4g
=25	=25	=25	=25	=25
1D	4e-]	2r	2g]	1.a
.	4d	.	.	.
.	1d	2a	2f	.
1A	.	1a	1e	.
.	2c#	.	.	2ee
=26	=26	=26	=26	=26
2D	2d	2f	1a	2ff
2A	2e	2c	.	2.ee
2G	1g	2d	2b-	.
.	.	.	.	4dd
2B-	.	2d	2g	[2dd
=27	=27	=27	=27	=27
1A	1r	1e	1a	2dd]
.	.	.	.	2cc#
[1D	[1a	1d	[1f	[1dd
=28	=28	=28	=28	=28
0D]	2a]	1.a	1f]	1dd]
.	2g	.	.	.
.	2f	.	1r	1r
.	2e	2g	.	.
=29	=29	=29	=29	=29
1r	2d	2f	1.a	0r
.	2c	2e	.	.
2r	1B-	1d	.	.
[2d	.	.	2g	.
=30	=30	=30	=30	=30
2d]	1A	1a	2f	0r
2c	.	.	2e	.
2B-	1r	2g	2d	.
2A	.	2f	2c	.
=31	=31	=31	=31	=31
2G	1r	2e	2B-	0r
2F	.	1d	2A	.
1E	2r	.	1G	.
.	[2g	2c#	.	.
=32	=32	=32	=32	=32
1D	2g]	1d	2A	2r
.	2f	.	2B	1dd
1r	1e	2r	1c	.
.	.	[2g	.	2cc
=33	=33	=33	=33	=33
0r	1d	2g]	0r	2b-
.	.	2f	.	2a
.	1G	2e	.	2g
.	.	[2d	.	2f
=34	=34	=34	=34	=34
1r	1A	2d]	1.a	1e
.	.	2c	.	.
[1d	1r	2f	.	1d
.	.	2g	2g	.
=35	=35	=35	=35	=35
2d]	2r	1a	2f	0r
2c	2a	.	2e	.
2B-	2g	1r	2d	.
2A	2f	.	2c	.
=36	=36	=36	=36	=36
1G	2e	1g	1B-	2r
.	2d	.	.	1dd
1A	[1a	2f	2A	.
.	.	2e	[2a	2cc
=37	=37	=37	=37	=37
1D	1a]	2.d	2a]	2.ff
.	.	.	2f	.
.	.	4c	.	4ee
1r	2r	4B-	[1b-	4dd
.	.	4A	.	4cc
.	[2g	4G	.	4b-
.	.	4F	.	4a
=38	=38	=38	=38	=38
0r	2g]	2G	2b-]	2g
.	2f	2d	2a	2a
.	2e-	1G	2g	1b-
.	2d	.	2b-	.
=39	=39	=39	=39	=39
0r	1c	0r	4a	2.cc
.	.	.	4g	.
.	.	.	1g	.
.	.	.	.	4b-
.	1d	.	.	1a
.	.	.	2f	.
=40	=40	=40	=40	=40
1r	1G	2r	1b-	1dd
.	.	1g	.	.
[1d	2r	.	[1a	2r
.	4d	2f	.	[2ff
.	4e	.	.	.
=41	=41	=41	=41	=41
2d]	4f	2d	1a]	2ff]
.	4g	.	.	.
2c	2a	2e	.	2ee
2B-	2d	2.f	1r	2dd
2A	2f	.	.	2cc
.	.	4c	.	.
=42	=42	=42	=42	=42
1G	1g	4e-	1r	1b-
.	.	4d	.	.
.	.	1d	.	.
1A	1e	.	2r	2a
.	.	2c#	[2a	2ee
=43	=43	=43	=43	=43
1D	2d	1d	4a]	2ff
.	.	.	4g	.
.	1d	.	2f	2dd
1r	.	1A	2e	1ee
.	2c	.	[2a	.
=44	=44	=44	=44	=44
1.d	1B-	1r	2a]	2ff
.	.	.	2g	4ee
.	.	.	.	4dd
.	2A	2r	1a	2ff
2c	[2a	2e	.	[2ee
=45	=45	=45	=45	=45
2B-	2a]	2f	1d	4ee]
.	.	.	.	4dd
2B-	2g	2d	.	1dd
1A	2a	2e	2r	.
.	[2a	[2A	2e	2cc#
=46	=46	=46	=46	=46
2.D	4a]	2A]	2.f	[0dd
.	4g	.	.	.
.	4f	2B-	.	.
4E	4e	.	4g	.
2F#	4d	2A	2a	.
.	4c	.	.	.
[2G	4B-	2G	[2b-	.
.	4A	.	.	.
=47	=47	=47	=47	=47
2G]	2G	0d	2b-]	1dd_
2F#	2A	.	2a	.
1G	1B-	.	1g	1dd_
=48	=48	=48	=48	=48
0D	0A	0d	0f#	0dd]
==	==	==	==	==
*-	*-	*-	*-	*-
!!!CDT: 1525/^1526/-1594/2/2
!!!OCY: Italia
!!!AGN: Mass (Parody)
!!!AST: renaissance, vocal
!!!ASW: Motet 1532 (Lhéritier)
!!!PWK: Masses, Book 5
!!!RNB: Cadence finals: G,A
!!!YOR: Le Opere Complete, v. 15, p. 89
!!!YOO: Rome, Italy: Fratelli Scalera
!!!END: 1992//
!!!EED: John Miller
!!!YEC: Copyright 2000, John Miller
!!!YEN: United States of America
!!!YEM: Rights to all derivative electronic formats reserved.
!!!YEM: Refer to licensing agreement for further details.
!!!YEM: This file must be accompanied by the licensing agreement.
!!!YEM: A copy of the licensing agreement may be found at http://www.music-cog.ohio-state.edu/HumdrumDatabases/Palestrina/license.txt
!!!EMD: converted to Humdrum by Bret Aarden
